X:1
T:Minuet in F Major
T:Minuet in F Major
T:12 Menuets pour le Clavecin ou Pianoforte Hob. IX:8 
T:Joseph Haydn
T:Public Domain
C:Joseph Haydn
Z:Public Domain
%%score { ( 1 4 ) | ( 2 3 ) }
L:1/8
Q:1/4=116
M:3/4
K:F
V:1 treble nm="Piano" snm="Pno."
V:4 treble 
V:2 bass 
V:3 bass 
V:1
 AB | c2 c2 c2 | c3 (faf) | fedc B2 | Bc/B/ c/B/A/B/ A2 | (AG)(BA)(cB) | (^cd=cBAG) | F4 AG | %8
 F2 z2 :: (AG) | G4 (BA) | A4 (c=B) | (=Bd)(fd)(Bd) | c3!f! _BAB | c2 c2 c2 |!f! c3 (faf) | %16
 fedc B2 | Bc/B/ c/B/A/B/ A2 | (AG)(BA)(cB) | (^cd=cBAG) | F4 AG | F2 z2 :| %22
V:2
 z2 | F,2 F,2 F,2 | F,2 F,2 F,2 | G,2 G,2 G,2 | [E,C]4 [F,C]2 | [B,D]6- | [B,D]4 [B,,B,]2 | %7
 [C,A,]4 [C,B,]2 | [F,A,]2 F,,2 :: z2 | C,2 C2 z2 | C,2 C2 z2 | C,2 C,2 C,2 | C,2 z2 z2 | %14
 F,2 F,2 F,2 | F,2 F,2 F,2 | G,2 G,2 G,2 | [E,C]4 [F,C]2 | [B,D]6- | [B,D]4 [B,,B,]2 | %20
 [C,A,]4 [C,B,]2 | [F,A,]2 F,,2 :| %22
V:3
 x2 | A,CA,CA,C | A,CA,CA,C | B,CB,CB,C | x6 | x6 | x6 | x6 | x4 :: x2 | x6 | x6 | %12
 [D,F,]2 [D,F,]2 [D,F,]2 | E,2 x2 x2 | A,CA,CA,C | A,CA,CA,C | B,CB,CB,C | x6 | x6 | x6 | x6 | %21
 x4 :| %22
V:4
 x2 | x6 | x6 | x6 | G4 F2 | x6 | x6 | x4 E2 | x4 :: FE | E4 GF | F4 x2 | x6 | x6 | x6 | x6 | x6 | %17
 G4 F2 | x6 | x6 | x4 E2 | x4 :| %22

